svgs/sharp-regular/engine.svg

<svg xmlns="http://www.w3.org/2000/svg" viewBox="0 0 640 512"><!--! Font Awesome Pro 6.6.0 by @fontawesome - https://fontawesome.com License - https://fontawesome.com/license (Commercial License) Copyright 2024 Fonticons, Inc. --><path d="M424 112l-24 0-72 0 0 32 88 0 96 64 0 192 0 48-48 0-240 0-51.2-64L128 384l-48 0 0-48 0-56-32 0 0 72 0 24L0 376l0-24L0 160l0-24 48 0 0 24 0 72 32 0 0-40 0-48 48 0 32 0 32 0 88 0 0-32-72 0-24 0 0-48 24 0 192 0 24 0 0 48zM210.3 354l36.8 46L464 400l0-166.3L401.5 192 192 192l-32 0-32 0 0 144 44.8 0 23.1 0 14.4 18zM544 192l96 0 0 256-96 0 0-256zM224 288l-64 0 0-64 64 0 0 64zm32-64l64 0 0 64-64 0 0-64zm160 0l0 64-64 0 0-64 64 0z"/></svg>

<svg xmlns="http://www.w3.org/2000/svg" viewBox="0 0 640 512"><!--! Font Awesome Pro 6.5.2 by @fontawesome - https://fontawesome.com License - https://fontawesome.com/license (Commercial License) Copyright 2024 Fonticons, Inc. --><path d="M424 112l-24 0-72 0v32h88l96 64V400v48H464 224l-51.2-64H128 80V336 280H48v72 24H0V352 160 136H48v24 72H80V192 144h48 32 32 88V112l-72 0H184V64h24H400h24v48zM210.3 354l36.8 46H464V233.7L401.5 192H192 160 128V336h44.8 23.1l14.4 18zM544 192h96V448H544V192zM224 288H160V224h64v64zm32-64h64v64H256V224zm160 0v64H352V224h64z"/></svg>
